X:1
T:Title
%%score { 1 | 2 }
L:1/8
M:2/4
K:F
V:1 treble nm="Grand Piano"
V:2 bass 
V:1
 z2 z[Q:1/4=92] C | FF F[CEG] | [CFA][CFA] [CFA]2 | [B,EG]>[A,F] [CEA]>[B,EG] | [B,EG] [A,F]3 | %5
[M:1/8] [A,C] |[M:2/4] [A,CF][A,CF] [A,CF][CEG] | [CFA][CFA] [CFA]2 | [B,EG]>[A,F] [CEA]>[B,EG] | %9
 G F3 | d>d d>d |[M:1/4] dc | z2 |[M:2/4] [EB]>[EB] [EB]>[GB] | [GB] .A3 | d>d d>d |[M:1/4] dc | %17
 [CF][DFG] |[M:2/4] [CFA]2 [B,EG]2 |[M:3/8] [A,F]3 |] %20
V:2
 z2 z [F,A,] | [F,A,C][F,A,C] [F,A,C]C, | F,F, F,2 | C,>C, C,>C, | F, F,3 |[M:1/8] F, | %6
[M:2/4] F,F, F,C, | F,F, F,2 | C,>C, C,>C, | [F,B,E] [F,A,]3 | [B,F]>[B,F] [B,F]>[B,F] | %11
[M:1/4] [F,B,F][F,A,F] | z2 |[M:2/4][K:bass] [C,G,]>[C,G,] [C,G,]>[C,C] | %14
 [F,C][K:treble] .[F,CF]3 | [B,F]>[B,F] [B,F]>[B,F] |[M:1/4][K:bass] [F,B,F][F,A,F] | A,,B,, | %18
[M:2/4] C,2 C,2 |[M:3/8] F,3 |] %20

